X:1
T:Title
%%score { ( 1 4 ) | ( 2 3 ) }
L:1/8
M:6/4
K:Db
V:1 treble nm="Grand Piano"
V:4 treble 
V:2 bass 
V:3 bass 
V:1
 z6 z4[Q:1/4=126] A2 | [FA]2 d2 B2 [FA]2 F2 G2 | [FA]2 d2 B2 [Gc]6 | A2 c2 d2 [EGe]2 f2 e2 | %4
[M:5/4] [Fd]2- [Fd]2- [Fd]6 |[M:1/4] A2 |[M:6/4] [FA]2 d2 B2 [FA]2 F2 G2 | [FA]2 d2 B2 [Gc]6 | %8
 [E=Ge]2 d2 c2 [GB]2 c2 d2 | e12 | [Fd]2 [Fc]2 [FB]2 [FA]2 [EG]2 F2 | G12 | c2 B2 A2 G2 A2 G2 | %13
[M:5/4] F2- F2- F6 |[M:1/4] [FA]2 |[M:6/4] [FA]2 [_F=G]2 [=FA]2 [Fd]4 F2 | e2 d2 c2 B6 | %17
[M:13/8] B2 c2 d2 A2 d3 e2[Q:1/4=124][Q:1/4=122][Q:1/4=120][Q:1/4=118][Q:1/4=116][Q:1/4=114][Q:1/4=112][Q:1/4=110][Q:1/4=108][Q:1/4=106][Q:1/4=104][Q:1/4=102][Q:1/4=100][Q:1/4=98][Q:1/4=96] | %18
[M:5/4] d4- [Gd-]2 [Fd]4 |] %19
V:2
 z6 z4 [A,F]2 | z2[K:treble] [DF]2 [B,G]2[K:bass] z2 [F,D]2 [G,E]2 | %2
 z2[K:treble] [CF]2 [B,F]2 [E,A,C]6 | G2 [CG]2 [DF]2[K:bass] z2[K:treble] [FA]2 [EG]2 | %4
[M:5/4][K:bass] [D,A,D]2- [D,A,D]2- [D,A,D]6 |[M:1/4] [A,F]2 | %6
[M:6/4] z2[K:treble] [DF]2 [B,G]2[K:bass] z2 [F,D]2 [G,E]2 | %7
 z2[K:treble] [DF]2 [B,F]2[K:bass] [E,A,C]6 | z2[K:treble] [D=G]2 [CG]2 B,2 [CG]2 [DG]2 | %9
 [A,CEG]12 | [D,A,]2 [D,A,]2 [D,A,]2 [D,D]2 [D,A,]2 [D,A,D]2 | [A,CE]4 [A,C]2 [A,C]6 | %12
 [A,EG]2 [A,DG]2 [A,CF]2 E2 F2[K:bass] [A,CE]2 |[M:5/4] [A,D]4 z2 z4 |[M:1/4] [D,D]2 | %15
[M:6/4] [D,D]4 [D,D]2 [D,D]4 [D,_C]2 | [G,B,G]2 [G,B,G]2 [G,CG]2 [G,DG]6 | %17
[M:13/8] [=G,D_F]2 [G,CF]2 [G,B,F]2 [A,D=F]2 [A,DF]3 [A,CG]2 |[M:5/4][K:bass] z4 B,2 A,4 |] %19
V:3
 x12 | [D,A,]6[K:treble][K:bass] [D,A,]6 | [D,A,]6[K:treble] z6 | A,6[K:bass] [A,,A,]6[K:treble] | %4
[M:5/4][K:bass] x10 |[M:1/4] x2 |[M:6/4] [D,A,]6[K:treble][K:bass] [D,A,]6 | %7
 [D,A,]6[K:treble][K:bass] z6 | [E,B,]6[K:treble] .[E,D]6 | x12 | x12 | x12 | z6 .[A,C]6[K:bass] | %13
[M:5/4] D,4- [D,-A,]2 [D,A,]4 |[M:1/4] x2 |[M:6/4] x12 | x12 |[M:13/8] x13 | %18
[M:5/4][K:bass] D,2- D,2- D,6 |] %19
V:4
 x12 | x12 | x12 | x12 |[M:5/4] x10 |[M:1/4] x2 |[M:6/4] x12 | x12 | x12 | z6 A6 | x12 | z4 E2 E6 | %12
 x12 |[M:5/4] z4 D2 D4 |[M:1/4] x2 |[M:6/4] x12 | x12 |[M:13/8] x13 |[M:5/4] [DF]4 z2 z4 |] %19

